X:6584
T:Greenhouse Hornpipe. BF13.048
M:4/4
Q:160
S:J.Lishman()MS,c1825,Lakes,Browne Coll.
R:March
O:England
A:Lakes
N:NB bar 4 (D2DDD) in MS..Bar 5 (d2dfedc) in MS..Bar 7 (edc fdcB) in
N:MS..CGP
Z:vmp.Chris Partington
K:D
d2d2fedc|d2ddd2A2|BdcB AGFE|"NB"D2DDD4|!
d2d2 fedc|c2a2a2gf|e2dc fdcB|A2AA"cr"A4::!
Acec Acec|Adfd Adfd|fagf edcB|A2AAA2GF|!
b2bbE2DE|a2a2z2z2|fafd gedc|d2ddd2:|]
